X:367
T:Johnnie Pringle
R:Strathspey
C:William Marshall
B:The Athole Collection
M:C
L:1/8
K:G
D<GG<g d<G B2|D<GG<g d<GB<g|d<GG<g d<G B2|c>AB>G A>GE>A:|
G<g g>a b/a/g/f/ g2|e>fg>a b>ga>b|e>fg>e dd|e<g d>B A>GE>A|
G<g g>a b/a/g/f/ g2|e>fg>a b>ga>b|g>be>g d>gB>g|c>aB>g A>GE>A||
